gcs/src/components/img/heading_mechanics.svg

<?xml version="1.0" encoding="utf-8"?>
<!DOCTYPE svg PUBLIC "-//W3C//DTD SVG 1.1//EN" "http://www.w3.org/Graphics/SVG/1.1/DTD/svg11.dtd">
<svg version="1.1" id="Layer_2" xmlns="http://www.w3.org/2000/svg" xmlns:xlink="http://www.w3.org/1999/xlink" x="0px" y="0px"
	 width="400.667px" height="400.666px" viewBox="0 0 400.667 400.666" enable-background="new 0 0 400.667 400.666"
	 xml:space="preserve">
<filter  filterUnits="objectBoundingBox" id="AI_Shadow_1">
	<feGaussianBlur  stdDeviation="5" result="blur" in="SourceAlpha"></feGaussianBlur>
	<feOffset  dy="0" dx="0" result="offsetBlurredAlpha" in="blur"></feOffset>
	<feMerge>
		<feMergeNode  in="offsetBlurredAlpha"></feMergeNode>
		<feMergeNode  in="SourceGraphic"></feMergeNode>
	</feMerge>
</filter>
<g filter="url(#AI_Shadow_1)">
	<path fill="none" stroke="#FF2A00" stroke-width="3" stroke-miterlimit="10" d="M200.38,81.417c0,0-7.042,11.625-11.292,24.75
		s-7.125,51.375-7.125,51.375l-54.213,39.3c0,0-13.543,8.502-16.3,15.598c-0.958,2.468-1.491,5.852-1.612,7.852
		c-0.222,3.681,0,13.749,0,13.75c0.125,2.125,1.5,3.875,6,2.375s69.5-23.125,69.5-23.125l2.75,54.25c0,0-16.723,12.949-21.875,17.75
		c-1.232,1.148-3.054,2.765-4.063,4.875c-1.045,2.187-1.161,5.537-1.188,7.25c-0.038,2.437-0.131,8.147,0.188,9.063
		c0.5,1.438,1.063,1.918,3.135,1.918c2.625,0,12.928-5.73,12.928-5.73l18.75-9.25l4.333,12.25l-4.333-12.25l4.333,12.25h0.168
		l4.333-12.25l18.75,9.25c0,0,10.303,5.73,12.928,5.73c2.072,0,2.635-0.48,3.135-1.918c0.318-0.916,0.226-6.625,0.188-9.063
		c-0.027-1.713-0.143-5.063-1.188-7.25c-1.008-2.11-2.83-3.727-4.063-4.875c-5.152-4.801-21.875-17.75-21.875-17.75l2.75-54.25
		c0,0,65,21.625,69.5,23.125s5.875-0.25,6-2.375c0-0.001,0.222-10.069,0-13.75c-0.121-2-0.653-5.384-1.612-7.852
		c-2.756-7.096-16.3-15.598-16.3-15.598l-54.213-39.3c0,0-2.875-38.25-7.125-51.375S200.38,81.417,200.38,81.417V61"/>
</g>
<g filter="url(#AI_Shadow_1)">
	<polygon fill="#FF2A00" points="200.381,332.311 194.542,344.439 206.542,344.439 	"/>
</g>
<g filter="url(#AI_Shadow_1)">
	<polygon fill="#FFFFFF" points="294.272,294.239 298.743,307.01 307.272,298.481 	"/>
</g>
<g filter="url(#AI_Shadow_1)">
	<polygon fill="#FFFFFF" points="105.938,294.771 94.146,298.898 102.02,306.771 	"/>
</g>
<g filter="url(#AI_Shadow_1)">
	<polygon fill="#FF2A00" points="68.291,200.382 56.291,194.604 56.291,206.477 	"/>
</g>
<g filter="url(#AI_Shadow_1)">
	<polygon fill="#FFFFFF" points="106.001,106.041 101.801,94.041 93.787,102.055 	"/>
</g>
<g filter="url(#AI_Shadow_1)">
	<polygon fill="#FFFFFF" points="294.731,105.894 306.519,101.767 298.646,93.894 	"/>
</g>
<g filter="url(#AI_Shadow_1)">
	<polygon fill="#FF2A00" points="332.311,200.285 344.44,206.125 344.441,194.125 	"/>
</g>
<g filter="url(#AI_Shadow_1)">
	<polygon fill="#FF2A00" points="200.619,68.022 206.458,55.893 194.458,55.892 	"/>
</g>
</svg>

<svg width="401" height="401" viewBox="0 0 401 401" fill="none" xmlns="http://www.w3.org/2000/svg">
<path d="M200.38 81.417C200.38 81.417 193.338 93.042 189.088 106.167C184.838 119.292 181.963 157.542 181.963 157.542L127.75 196.842C127.75 196.842 114.207 205.344 111.45 212.44C110.492 214.908 109.959 218.292 109.838 220.292C109.616 223.973 109.838 234.041 109.838 234.042C109.963 236.167 111.338 237.917 115.838 236.417C120.338 234.917 185.338 213.292 185.338 213.292L188.088 267.542C188.088 267.542 171.365 280.491 166.213 285.292C164.981 286.44 163.159 288.057 162.15 290.167C161.105 292.354 160.989 295.704 160.962 297.417C160.924 299.854 160.831 305.564 161.15 306.48C161.65 307.918 162.213 308.398 164.285 308.398C166.91 308.398 177.213 302.668 177.213 302.668L195.963 293.418L200.296 305.668H200.464L204.797 293.418L223.547 302.668C223.547 302.668 233.85 308.398 236.475 308.398C238.547 308.398 239.11 307.918 239.61 306.48C239.928 305.564 239.836 299.855 239.798 297.417C239.771 295.704 239.655 292.354 238.61 290.167C237.602 288.057 235.78 286.44 234.547 285.292C229.395 280.491 212.672 267.542 212.672 267.542L215.422 213.292C215.422 213.292 280.422 234.917 284.922 236.417C289.422 237.917 290.797 236.167 290.922 234.042C290.922 234.041 291.144 223.973 290.922 220.292C290.801 218.292 290.269 214.908 289.31 212.44C286.554 205.344 273.01 196.842 273.01 196.842L218.797 157.542C218.797 157.542 215.922 119.292 211.672 106.167C207.422 93.042 200.38 81.417 200.38 81.417ZM200.38 81.417V61" stroke="#E74C3C" stroke-width="3" stroke-miterlimit="10"/>
<path d="M200.381 332.311L194.542 344.439H206.542L200.381 332.311Z" fill="#E74C3C"/>
<path d="M294.272 294.239L298.743 307.01L307.272 298.481L294.272 294.239Z" fill="white"/>
<path d="M105.938 294.771L94.146 298.898L102.02 306.771L105.938 294.771Z" fill="white"/>
<path d="M68.291 200.382L56.291 194.604V206.477L68.291 200.382Z" fill="#E74C3C"/>
<path d="M106.001 106.041L101.801 94.041L93.7871 102.055L106.001 106.041Z" fill="white"/>
<path d="M294.731 105.894L306.519 101.767L298.646 93.894L294.731 105.894Z" fill="white"/>
<path d="M332.311 200.285L344.44 206.125L344.441 194.125L332.311 200.285Z" fill="#E74C3C"/>
<path d="M200.619 68.022L206.458 55.893L194.458 55.892L200.619 68.022Z" fill="#E74C3C"/>
</svg>
